Icons/TM_Icons/more icons/number-09.svg

<?xml version='1.0' encoding='utf-8'?>
<ns0:svg xmlns:ns0="http://www.w3.org/2000/svg" version="1.1" viewBox="173.0 0.0 1480.0 1480.0" role="img" focusable="false" preserveAspectRatio="xMidYMid meet">
   <ns0:path fill="currentColor" d="M173 60c0 -204.667 72.167 -379.17 216.5 -523.5s318.833 -216.5 523.5 -216.5c204.67 0 379.17 72.1699 523.5 216.5s216.5 318.833 216.5 523.5s-72.1699 379.167 -216.5 523.5s-318.83 216.5 -523.5 216.5c-204.667 0 -379.167 -72.167 -523.5 -216.5 s-216.5 -318.833 -216.5 -523.5zM1091 92v25c0 231.333 -77.6699 347 -233 347c-39.335 0 -76.668 -9 -112 -27c-17.3359 -8.66699 -27.6689 -39.333 -31 -92l-1 -24h-85v187c40.667 12 81.834 21.167 123.5 27.5c41.667 6.33301 84.167 9.5 127.5 9.5 c124 0 222.5 -45.833 295.5 -137.5s109.5 -214.833 109.5 -369.5c0 -146 -32.5 -260.17 -97.5 -342.5c-65 -82.3398 -155.17 -123.5 -270.5 -123.5c-97.333 0 -177.833 31.5 -241.5 94.5s-95.5 143.167 -95.5 240.5c0 85.334 27.167 155.667 81.5 211 c54.333 55.334 123.167 83.001 206.5 83c94 -0.000976562 168.33 -36.334 223 -109zM1085 -69c0 112.667 -53.6699 169 -161 169c-104.667 0 -157 -76 -157 -228c0 -146 47.334 -219 142 -219c117.33 0 176 92.6699 176 278z" />
</ns0:svg>

<svg xmlns="http://www.w3.org/2000/svg" width="400" height="200" viewBox="-567 -680 2960 1480"><path fill="currentColor" d="M173 60c0-204.667 72.167-379.17 216.5-523.5S708.333-680 913-680c204.67 0 379.17 72.17 523.5 216.5S1653-144.667 1653 60s-72.17 379.167-216.5 523.5S1117.67 800 913 800q-307 0-523.5-216.5C173 367 173 264.667 173 60m918 32v25c0 231.333-77.67 347-233 347q-59.002 0-112-27-26.004-13-31-92l-1-24h-85v187q61 18 123.5 27.5T880 545q186 0 295.5-137.5C1285 270 1285 192.667 1285 38c0-146-32.5-260.17-97.5-342.5-65-82.34-155.17-123.5-270.5-123.5q-146 0-241.5 94.5C580-239 580-190.333 580-93q0 128 81.5 211Q743 201.001 868 201c94-.001 168.33-36.334 223-109m-6-161c0 112.667-53.67 169-161 169q-157 0-157-228 0-219 142-219c117.33 0 176 92.67 176 278"/></svg>
